icons/tag-person.svg

<svg xmlns="http://www.w3.org/2000/svg" width="24" height="24" viewBox="0 0 24 24">
  <path d="M13,2 C13.2652165,2 13.5195704,2.10535684 13.7071068,2.29289322 L13.7071068,2.29289322 L21.2928932,9.87867966 C22.4644661,11.0502525 22.4644661,12.9497475 21.2928932,14.1213203 L21.2928932,14.1213203 L14.1213203,21.2928932 C12.9497475,22.4644661 11.0502525,22.4644661 9.87867966,21.2928932 L9.87867966,21.2928932 L2.29289322,13.7071068 C2.10535684,13.5195704 2,13.2652165 2,13 L2,13 L2,5 C2,3.34314575 3.34314575,2 5,2 L5,2 Z M13,13 L11,13 L10.8151403,13.0049586 C9.41840278,13.0804956 8.5,14.0076133 8.5,15 C8.5,15.5 8.5,16 9.5,16 L9.5,16 L14.5,16 L14.6575789,15.9954561 C15.5,15.9444444 15.5,15.4722222 15.5,15 C15.5,13.9644661 14.5,13 13,13 L13,13 Z M12,8 C10.8954305,8 10,8.8954305 10,10 C10,11.1045695 10.8954305,12 12,12 C13.1045695,12 14,11.1045695 14,10 C14,8.8954305 13.1045695,8 12,8 Z"/>
</svg>

<svg xmlns="http://www.w3.org/2000/svg" viewBox="0 0 24 24">
  <path d="M13 2a1 1 0 0 1 .7.3l7.6 7.58a3 3 0 0 1 0 4.24l-7.18 7.17a3 3 0 0 1-4.24 0l-7.59-7.58A1 1 0 0 1 2 13V5a3 3 0 0 1 3-3zm0 11h-2.18c-1.4.08-2.32 1-2.32 2 0 .5 0 1 1 1h5.16c.84-.06.84-.53.84-1 0-1.04-1-2-2.5-2zm-1-5a2 2 0 1 0 0 4 2 2 0 0 0 0-4z"/>
</svg>
